; generated by PrusaSlicer 2.3.3 on 2022-01-26 at 19:59:46 UTC


;
;

;
;
; 

; external perimeters extrusion width = 0.45mm
; perimeters extrusion width = 0.45mm
; infill extrusion width = 0.45mm
; solid infill extrusion width = 0.45mm
; top infill extrusion width = 0.40mm
; first layer extrusion width = 0.42mm

M73 P0 R102
M201 X1250 Y1250 Z400 E5000 ; sets maximum accelerations, mm/sec^2
M203 X180 Y180 Z12 E80 ; sets maximum feedrates, mm/sec
M204 P1250 R1250 T1250 ; sets acceleration (P, T) and retract acceleration (R), mm/sec^2
M205 X8.00 Y8.00 Z2.00 E10.00 ; sets the jerk limits, mm/sec
M205 S0 T0 ; sets the minimum extruding and travel feed rate, mm/sec
M107
;TYPE:Custom
G90 ; use absolute coordinates
M83 ; extruder relative mode
M104 S170 ; set extruder temp for bed leveling
M140 S85 ; set bed temp
M109 R170 ; wait for bed leveling temp
M190 S85 ; wait for bed temp
G28 ; home all without mesh bed level
G29 ; mesh bed leveling 
M104 S240 ; set extruder temp
G92 E0.0
G1 Y-2.0 X179 F2400
G1 Z3 F720
M109 S240 ; wait for extruder temp

; intro line
G1 X170 F1000
G1 Z0.2 F720
G1 X110.0 E8.0 F900
G1 X40.0 E10.0 F700
G92 E0.0

M221 S95 ; set flow
G21 ; set units to millimeters
G90 ; use absolute coordinates
M83 ; use relative distances for extrusion
M900 K0.2 ; Filament gcode
;LAYER_CHANGE
;Z:0.2
;HEIGHT:0.2
;BEFORE_LAYER_CHANGE
G92 E0.0
;0.2


G1 Z0.200 F13200.000
;AFTER_LAYER_CHANGE
;0.2
; printing object ePaperCase-Inlay.stl id:0 copy 0
G1 E-3.20000 F2400.000
G1 Z0.400 F13200.000
G1 X5.687 Y34.662
G1 Z0.200
G1 E3.20000 F1500.000
M204 S800
;TYPE:Perimeter
;WIDTH:0.42
G1 F2400.000
G1 X80.113 Y34.662 E2.33357
M73 P0 R101
G1 X80.113 Y35.662 E0.03135
G1 X99.687 Y35.662 E0.61373
G1 X99.687 Y34.662 E0.03135
G1 X174.313 Y34.662 E2.33984
G1 X174.313 Y144.538 E3.44508
G1 X5.687 Y144.538 E5.28715
G1 X5.687 Y34.722 E3.44320
M204 S1250
G1 E-2.24000
;WIPE_START
G1 F10560.000
G1 X9.911 Y34.719 E-0.91200
;WIPE_END
G1 E-0.04800 F2400.000
G1 Z0.400 F13200.000
G1 X80.490 Y35.285
G1 Z0.200
G1 E3.20000 F1500.000
M204 S800
;TYPE:External perimeter
G1 F2400.000
G1 X99.310 Y35.285 E0.59009
G1 X99.310 Y34.285 E0.03135
G1 X174.690 Y34.285 E2.36349
G1 X174.690 Y144.915 E3.46873
G1 X5.310 Y144.915 E5.31079
G1 X5.310 Y34.285 E3.46873
G1 X80.490 Y34.285 E2.35722
G1 X80.490 Y35.225 E0.02947
M204 S1250
G1 X80.688 Y35.632 F13200.000
G1 E-2.24000 F2400.000
;WIPE_START
G1 F10560.000
G1 X84.714 Y35.238 E-0.91200
;WIPE_END
G1 E-0.04800 F2400.000
G1 Z0.400 F13200.000
G1 X174.200 Y35.538
G1 Z0.200
G1 E3.20000 F1500.000
M204 S800
;TYPE:Solid infill
;WIDTH:0.420393
G1 F2400.000
G1 X173.606 Y34.945 E0.02634
G1 X173.073 Y34.945 E0.01676
G1 X174.030 Y35.902 E0.04250
G1 X174.030 Y36.436 E0.01676
G1 X172.539 Y34.945 E0.06620
G1 X172.005 Y34.945 E0.01676
G1 X174.030 Y36.970 E0.08990
G1 X174.030 Y37.504 E0.01676
G1 X171.471 Y34.945 E0.11359
G1 X170.937 Y34.945 E0.01676
G1 X174.030 Y38.038 E0.13729
G1 X174.030 Y38.572 E0.01676
G1 X170.403 Y34.945 E0.16098
G1 X169.870 Y34.945 E0.01676
G1 X174.030 Y39.105 E0.18468
G1 X174.030 Y39.639 E0.01676
G1 X169.336 Y34.945 E0.20837
G1 X168.802 Y34.945 E0.01676
G1 X174.030 Y40.173 E0.23207
G1 X174.030 Y40.707 E0.01676
G1 X168.268 Y34.945 E0.25576
G1 X167.734 Y34.945 E0.01676
G1 X174.030 Y41.241 E0.27946
G1 X174.030 Y41.775 E0.01676
G1 X167.200 Y34.945 E0.30315
G1 X166.667 Y34.945 E0.01676
G1 X174.030 Y42.308 E0.32685
G1 X174.030 Y42.842 E0.01676
G1 X166.133 Y34.945 E0.35055
G1 X165.599 Y34.945 E0.01676
G1 X174.030 Y43.376 E0.37424
G1 X174.030 Y43.910 E0.01676
G1 X165.065 Y34.945 E0.39794
G1 X164.531 Y34.945 E0.01676
G1 X174.030 Y44.444 E0.42163
G1 X174.030 Y44.978 E0.01676
G1 X163.998 Y34.945 E0.44533
G1 X163.464 Y34.945 E0.01676
G1 X174.030 Y45.511 E0.46902
G1 X174.030 Y46.045 E0.01676
G1 X162.930 Y34.945 E0.49272
G1 X162.396 Y34.945 E0.01676
G1 X174.030 Y46.579 E0.51641
G1 X174.030 Y47.113 E0.01676
G1 X161.862 Y34.945 E0.54011
G1 X161.328 Y34.945 E0.01676
G1 X174.030 Y47.647 E0.56381
G1 X174.030 Y48.180 E0.01676
G1 X160.795 Y34.945 E0.58750
G1 X160.261 Y34.945 E0.01676
G1 X174.030 Y48.714 E0.61120
G1 X174.030 Y49.248 E0.01676
G1 X159.727 Y34.945 E0.63489
G1 X159.193 Y34.945 E0.01676
G1 X174.030 Y49.782 E0.65859
G1 X174.030 Y50.316 E0.01676
G1 X158.659 Y34.945 E0.68228
G1 X158.125 Y34.945 E0.01676
G1 X174.030 Y50.850 E0.70598
G1 X174.030 Y51.383 E0.01676
G1 X157.592 Y34.945 E0.72967
G1 X157.058 Y34.945 E0.01676
G1 X174.030 Y51.917 E0.75337
G1 X174.030 Y52.451 E0.01676
G1 X156.524 Y34.945 E0.77706
G1 X155.990 Y34.945 E0.01676
G1 X174.030 Y52.985 E0.80076
G1 X174.030 Y53.519 E0.01676
G1 X155.456 Y34.945 E0.82446
G1 X154.922 Y34.945 E0.01676
G1 X174.030 Y54.053 E0.84815
M73 P1 R101
G1 X174.030 Y54.586 E0.01676
G1 X154.389 Y34.945 E0.87185
G1 X153.855 Y34.945 E0.01676
G1 X174.030 Y55.120 E0.89554
G1 X174.030 Y55.654 E0.01676
G1 X153.321 Y34.945 E0.91924
G1 X152.787 Y34.945 E0.01676
G1 X174.030 Y56.188 E0.94293
G1 X174.030 Y56.722 E0.01676
G1 X152.253 Y34.945 E0.96663
G1 X151.719 Y34.945 E0.01676
G1 X174.030 Y57.256 E0.99032
G1 X174.030 Y57.789 E0.01676
G1 X151.186 Y34.945 E1.01402
G1 X150.652 Y34.945 E0.01676
G1 X174.030 Y58.323 E1.03772
G1 X174.030 Y58.857 E0.01676
G1 X150.118 Y34.945 E1.06141
G1 X149.584 Y34.945 E0.01676
G1 X174.030 Y59.391 E1.08511
G1 X174.030 Y59.925 E0.01676
G1 X149.050 Y34.945 E1.10880
G1 X148.517 Y34.945 E0.01676
G1 X174.030 Y60.458 E1.13250
G1 X174.030 Y60.992 E0.01676
G1 X147.983 Y34.945 E1.15619
G1 X147.449 Y34.945 E0.01676
G1 X174.030 Y61.526 E1.17989
G1 X174.030 Y62.060 E0.01676
G1 X146.915 Y34.945 E1.20358
G1 X146.381 Y34.945 E0.01676
G1 X174.030 Y62.594 E1.22728
G1 X174.030 Y63.128 E0.01676
G1 X145.847 Y34.945 E1.25097
M73 P1 R100
G1 X145.314 Y34.945 E0.01676
G1 X174.030 Y63.661 E1.27467
G1 X174.030 Y64.195 E0.01676
G1 X144.780 Y34.945 E1.29837
G1 X144.246 Y34.945 E0.01676
G1 X174.030 Y64.729 E1.32206
G1 X174.030 Y65.263 E0.01676
G1 X143.712 Y34.945 E1.34576
G1 X143.178 Y34.945 E0.01676
G1 X174.030 Y65.797 E1.36945
G1 X174.030 Y66.331 E0.01676
G1 X142.644 Y34.945 E1.39315
G1 X142.111 Y34.945 E0.01676
G1 X174.030 Y66.864 E1.41684
G1 X174.030 Y67.398 E0.01676
G1 X141.577 Y34.945 E1.44054
G1 X141.043 Y34.945 E0.01676
G1 X174.030 Y67.932 E1.46423
G1 X174.030 Y68.466 E0.01676
G1 X140.509 Y34.945 E1.48793
G1 X139.975 Y34.945 E0.01676
G1 X174.030 Y69.000 E1.51162
G1 X174.030 Y69.534 E0.01676
G1 X139.441 Y34.945 E1.53532
G1 X138.908 Y34.945 E0.01676
G1 X174.030 Y70.067 E1.55902
G1 X174.030 Y70.601 E0.01676
G1 X138.374 Y34.945 E1.58271
G1 X137.840 Y34.945 E0.01676
G1 X174.030 Y71.135 E1.60641
G1 X174.030 Y71.669 E0.01676
G1 X137.306 Y34.945 E1.63010
G1 X136.772 Y34.945 E0.01676
G1 X174.030 Y72.203 E1.65380
G1 X174.030 Y72.737 E0.01676
G1 X136.238 Y34.945 E1.67749
G1 X135.705 Y34.945 E0.01676
G1 X174.030 Y73.270 E1.70119
G1 X174.030 Y73.804 E0.01676
G1 X135.171 Y34.945 E1.72488
G1 X134.637 Y34.945 E0.01676
G1 X174.030 Y74.338 E1.74858
G1 X174.030 Y74.872 E0.01676
G1 X134.103 Y34.945 E1.77228
G1 X133.569 Y34.945 E0.01676
G1 X174.030 Y75.406 E1.79597
G1 X174.030 Y75.939 E0.01676
G1 X133.036 Y34.945 E1.81967
G1 X132.502 Y34.945 E0.01676
G1 X174.030 Y76.473 E1.84336
G1 X174.030 Y77.007 E0.01676
G1 X131.968 Y34.945 E1.86706
G1 X131.434 Y34.945 E0.01676
G1 X174.030 Y77.541 E1.89075
G1 X174.030 Y78.075 E0.01676
G1 X130.900 Y34.945 E1.91445
G1 X130.366 Y34.945 E0.01676
G1 X174.030 Y78.609 E1.93814
G1 X174.030 Y79.142 E0.01676
G1 X129.833 Y34.945 E1.96184
G1 X129.299 Y34.945 E0.01676
G1 X174.030 Y79.676 E1.98553
G1 X174.030 Y80.210 E0.01676
G1 X128.765 Y34.945 E2.00923
G1 X128.231 Y34.945 E0.01676
G1 X174.030 Y80.744 E2.03293
M73 P2 R100
G1 X174.030 Y81.278 E0.01676
G1 X127.697 Y34.945 E2.05662
G1 X127.163 Y34.945 E0.01676
G1 X174.030 Y81.812 E2.08032
G1 X174.030 Y82.345 E0.01676
G1 X126.630 Y34.945 E2.10401
G1 X126.096 Y34.945 E0.01676
G1 X174.030 Y82.879 E2.12771
G1 X174.030 Y83.413 E0.01676
G1 X125.562 Y34.945 E2.15140
G1 X125.028 Y34.945 E0.01676
G1 X174.030 Y83.947 E2.17510
G1 X174.030 Y84.481 E0.01676
G1 X124.494 Y34.945 E2.19879
G1 X123.960 Y34.945 E0.01676
G1 X174.030 Y85.015 E2.22249
G1 X174.030 Y85.548 E0.01676
G1 X123.427 Y34.945 E2.24619
M73 P2 R99
G1 X122.893 Y34.945 E0.01676
G1 X174.030 Y86.082 E2.26988
G1 X174.030 Y86.616 E0.01676
G1 X122.359 Y34.945 E2.29358
G1 X121.825 Y34.945 E0.01676
G1 X174.030 Y87.150 E2.31727
G1 X174.030 Y87.684 E0.01676
G1 X121.291 Y34.945 E2.34097
G1 X120.757 Y34.945 E0.01676
G1 X174.030 Y88.218 E2.36466
G1 X174.030 Y88.751 E0.01676
G1 X120.224 Y34.945 E2.38836
G1 X119.690 Y34.945 E0.01676
G1 X174.030 Y89.285 E2.41205
G1 X174.030 Y89.819 E0.01676
G1 X119.156 Y34.945 E2.43575
G1 X118.622 Y34.945 E0.01676
G1 X174.030 Y90.353 E2.45944
G1 X174.030 Y90.887 E0.01676
G1 X118.088 Y34.945 E2.48314
G1 X117.555 Y34.945 E0.01676
G1 X174.030 Y91.420 E2.50684
G1 X174.030 Y91.954 E0.01676
G1 X117.021 Y34.945 E2.53053
G1 X116.487 Y34.945 E0.01676
G1 X174.030 Y92.488 E2.55423
G1 X174.030 Y93.022 E0.01676
G1 X115.953 Y34.945 E2.57792
G1 X115.419 Y34.945 E0.01676
G1 X174.030 Y93.556 E2.60162
G1 X174.030 Y94.090 E0.01676
G1 X114.885 Y34.945 E2.62531
G1 X114.352 Y34.945 E0.01676
G1 X174.030 Y94.623 E2.64901
G1 X174.030 Y95.157 E0.01676
G1 X113.818 Y34.945 E2.67270
G1 X113.284 Y34.945 E0.01676
G1 X174.030 Y95.691 E2.69640
G1 X174.030 Y96.225 E0.01676
G1 X112.750 Y34.945 E2.72010
G1 X112.216 Y34.945 E0.01676
G1 X174.030 Y96.759 E2.74379
G1 X174.030 Y97.293 E0.01676
G1 X111.682 Y34.945 E2.76749
M73 P3 R99
G1 X111.149 Y34.945 E0.01676
G1 X174.030 Y97.826 E2.79118
G1 X174.030 Y98.360 E0.01676
G1 X110.615 Y34.945 E2.81488
G1 X110.081 Y34.945 E0.01676
G1 X174.030 Y98.894 E2.83857
G1 X174.030 Y99.428 E0.01676
G1 X109.547 Y34.945 E2.86227
G1 X109.013 Y34.945 E0.01676
G1 X174.030 Y99.962 E2.88596
G1 X174.030 Y100.496 E0.01676
G1 X108.479 Y34.945 E2.90966
M73 P3 R98
G1 X107.946 Y34.945 E0.01676
G1 X174.030 Y101.029 E2.93335
G1 X174.030 Y101.563 E0.01676
G1 X107.412 Y34.945 E2.95705
G1 X106.878 Y34.945 E0.01676
G1 X174.030 Y102.097 E2.98075
G1 X174.030 Y102.631 E0.01676
G1 X106.344 Y34.945 E3.00444
G1 X105.810 Y34.945 E0.01676
G1 X174.030 Y103.165 E3.02814
G1 X174.030 Y103.699 E0.01676
G1 X105.276 Y34.945 E3.05183
G1 X104.743 Y34.945 E0.01676
G1 X174.030 Y104.232 E3.07553
G1 X174.030 Y104.766 E0.01676
G1 X104.209 Y34.945 E3.09922
G1 X103.675 Y34.945 E0.01676
G1 X174.030 Y105.300 E3.12292
G1 X174.030 Y105.834 E0.01676
G1 X103.141 Y34.945 E3.14661
G1 X102.607 Y34.945 E0.01676
G1 X174.030 Y106.368 E3.17031
G1 X174.030 Y106.901 E0.01676
G1 X102.074 Y34.945 E3.19401
G1 X101.540 Y34.945 E0.01676
G1 X174.030 Y107.435 E3.21770
G1 X174.030 Y107.969 E0.01676
G1 X101.006 Y34.945 E3.24140
G1 X100.472 Y34.945 E0.01676
G1 X174.030 Y108.503 E3.26509
G1 X174.030 Y109.037 E0.01676
G1 X99.970 Y34.977 E3.28738
G1 X99.970 Y35.510 E0.01676
G1 X174.030 Y109.571 E3.28738
G1 X174.030 Y110.104 E0.01676
G1 X99.871 Y35.945 E3.29179
G1 X99.337 Y35.945 E0.01676
G1 X174.030 Y110.638 E3.31549
M73 P4 R98
G1 X174.030 Y111.172 E0.01676
G1 X98.803 Y35.945 E3.33918
G1 X98.269 Y35.945 E0.01676
G1 X174.030 Y111.706 E3.36288
G1 X174.030 Y112.240 E0.01676
G1 X97.735 Y35.945 E3.38657
G1 X97.201 Y35.945 E0.01676
G1 X174.030 Y112.774 E3.41027
M73 P4 R97
G1 X174.030 Y113.307 E0.01676
G1 X96.668 Y35.945 E3.43396
G1 X96.134 Y35.945 E0.01676
G1 X174.030 Y113.841 E3.45766
G1 X174.030 Y114.375 E0.01676
G1 X95.600 Y35.945 E3.48135
G1 X95.066 Y35.945 E0.01676
G1 X174.030 Y114.909 E3.50505
G1 X174.030 Y115.443 E0.01676
G1 X94.532 Y35.945 E3.52875
G1 X93.998 Y35.945 E0.01676
G1 X174.030 Y115.977 E3.55244
G1 X174.030 Y116.510 E0.01676
G1 X93.465 Y35.945 E3.57614
G1 X92.931 Y35.945 E0.01676
G1 X174.030 Y117.044 E3.59983
G1 X174.030 Y117.578 E0.01676
G1 X92.397 Y35.945 E3.62353
G1 X91.863 Y35.945 E0.01676
G1 X174.030 Y118.112 E3.64722
G1 X174.030 Y118.646 E0.01676
G1 X91.329 Y35.945 E3.67092
G1 X90.795 Y35.945 E0.01676
G1 X174.030 Y119.180 E3.69461
G1 X174.030 Y119.713 E0.01676
G1 X90.262 Y35.945 E3.71831
G1 X89.728 Y35.945 E0.01676
G1 X174.030 Y120.247 E3.74200
G1 X174.030 Y120.781 E0.01676
G1 X89.194 Y35.945 E3.76570
G1 X88.660 Y35.945 E0.01676
G1 X174.030 Y121.315 E3.78940
G1 X174.030 Y121.849 E0.01676
G1 X88.126 Y35.945 E3.81309
M73 P5 R97
G1 X87.593 Y35.945 E0.01676
G1 X174.030 Y122.382 E3.83679
G1 X174.030 Y122.916 E0.01676
G1 X87.059 Y35.945 E3.86048
G1 X86.525 Y35.945 E0.01676
G1 X174.030 Y123.450 E3.88418
M73 P5 R96
G1 X174.030 Y123.984 E0.01676
G1 X85.991 Y35.945 E3.90787
G1 X85.457 Y35.945 E0.01676
G1 X174.030 Y124.518 E3.93157
G1 X174.030 Y125.052 E0.01676
G1 X84.923 Y35.945 E3.95526
G1 X84.390 Y35.945 E0.01676
G1 X174.030 Y125.585 E3.97896
G1 X174.030 Y126.119 E0.01676
G1 X83.856 Y35.945 E4.00266
G1 X83.322 Y35.945 E0.01676
G1 X174.030 Y126.653 E4.02635
G1 X174.030 Y127.187 E0.01676
G1 X82.788 Y35.945 E4.05005
G1 X82.254 Y35.945 E0.01676
G1 X174.030 Y127.721 E4.07374
G1 X174.030 Y128.255 E0.01676
G1 X81.720 Y35.945 E4.09744
G1 X81.187 Y35.945 E0.01676
G1 X174.030 Y128.788 E4.12113
G1 X174.030 Y129.322 E0.01676
G1 X80.483 Y35.775 E4.15236
M204 S1250
G1 X80.000 Y35.292 F13200.000
M204 S800
G1 F2400.000
G1 X79.653 Y34.945 E0.01540
G1 X79.119 Y34.945 E0.01676
G1 X174.030 Y129.856 E4.21291
G1 X174.030 Y130.390 E0.01676
G1 X78.585 Y34.945 E4.23661
G1 X78.051 Y34.945 E0.01676
G1 X174.030 Y130.924 E4.26030
G1 X174.030 Y131.458 E0.01676
G1 X77.517 Y34.945 E4.28400
M73 P6 R96
G1 X76.984 Y34.945 E0.01676
G1 X174.030 Y131.991 E4.30769
G1 X174.030 Y132.525 E0.01676
G1 X76.450 Y34.945 E4.33139
G1 X75.916 Y34.945 E0.01676
G1 X174.030 Y133.059 E4.35508
M73 P6 R95
G1 X174.030 Y133.593 E0.01676
G1 X75.382 Y34.945 E4.37878
G1 X74.848 Y34.945 E0.01676
G1 X174.030 Y134.127 E4.40248
G1 X174.030 Y134.661 E0.01676
G1 X74.314 Y34.945 E4.42617
G1 X73.781 Y34.945 E0.01676
G1 X174.030 Y135.194 E4.44987
G1 X174.030 Y135.728 E0.01676
G1 X73.247 Y34.945 E4.47356
G1 X72.713 Y34.945 E0.01676
G1 X174.030 Y136.262 E4.49726
G1 X174.030 Y136.796 E0.01676
G1 X72.179 Y34.945 E4.52095
G1 X71.645 Y34.945 E0.01676
G1 X174.030 Y137.330 E4.54465
G1 X174.030 Y137.863 E0.01676
G1 X71.112 Y34.945 E4.56834
G1 X70.578 Y34.945 E0.01676
G1 X174.030 Y138.397 E4.59204
G1 X174.030 Y138.931 E0.01676
G1 X70.044 Y34.945 E4.61574
G1 X69.510 Y34.945 E0.01676
G1 X174.030 Y139.465 E4.63943
G1 X174.030 Y139.999 E0.01676
G1 X68.976 Y34.945 E4.66313
G1 X68.442 Y34.945 E0.01676
G1 X174.030 Y140.533 E4.68682
M73 P7 R95
G1 X174.030 Y141.066 E0.01676
G1 X67.909 Y34.945 E4.71052
G1 X67.375 Y34.945 E0.01676
G1 X174.030 Y141.600 E4.73421
G1 X174.030 Y142.134 E0.01676
G1 X66.841 Y34.945 E4.75791
M73 P7 R94
G1 X66.307 Y34.945 E0.01676
G1 X174.030 Y142.668 E4.78160
G1 X174.030 Y143.202 E0.01676
G1 X65.773 Y34.945 E4.80530
G1 X65.239 Y34.945 E0.01676
G1 X174.030 Y143.736 E4.82899
G1 X174.030 Y144.255 E0.01631
G1 X64.706 Y34.945 E4.85237
G1 X64.172 Y34.945 E0.01676
G1 X173.482 Y144.255 E4.85206
G1 X172.948 Y144.255 E0.01676
G1 X63.638 Y34.945 E4.85206
G1 X63.104 Y34.945 E0.01676
G1 X172.414 Y144.255 E4.85206
G1 X171.881 Y144.255 E0.01676
G1 X62.570 Y34.945 E4.85206
G1 X62.036 Y34.945 E0.01676
G1 X171.347 Y144.255 E4.85206
G1 X170.813 Y144.255 E0.01676
G1 X61.503 Y34.945 E4.85206
G1 X60.969 Y34.945 E0.01676
G1 X170.279 Y144.255 E4.85206
G1 X169.745 Y144.255 E0.01676
G1 X60.435 Y34.945 E4.85206
G1 X59.901 Y34.945 E0.01676
G1 X169.211 Y144.255 E4.85206
M73 P8 R94
G1 X168.678 Y144.255 E0.01676
G1 X59.367 Y34.945 E4.85206
G1 X58.833 Y34.945 E0.01676
G1 X168.144 Y144.255 E4.85206
M73 P8 R93
G1 X167.610 Y144.255 E0.01676
G1 X58.300 Y34.945 E4.85206
G1 X57.766 Y34.945 E0.01676
G1 X167.076 Y144.255 E4.85206
G1 X166.542 Y144.255 E0.01676
G1 X57.232 Y34.945 E4.85206
G1 X56.698 Y34.945 E0.01676
G1 X166.008 Y144.255 E4.85206
G1 X165.475 Y144.255 E0.01676
G1 X56.164 Y34.945 E4.85206
G1 X55.631 Y34.945 E0.01676
G1 X164.941 Y144.255 E4.85206
G1 X164.407 Y144.255 E0.01676
G1 X55.097 Y34.945 E4.85206
G1 X54.563 Y34.945 E0.01676
G1 X163.873 Y144.255 E4.85206
G1 X163.339 Y144.255 E0.01676
G1 X54.029 Y34.945 E4.85206
G1 X53.495 Y34.945 E0.01676
G1 X162.805 Y144.255 E4.85206
G1 X162.272 Y144.255 E0.01676
