; generated by PrusaSlicer 2.3.3 on 2022-01-26 at 20:00:09 UTC


;
;

;
;
; 

; external perimeters extrusion width = 0.45mm
; perimeters extrusion width = 0.45mm
; infill extrusion width = 0.45mm
; solid infill extrusion width = 0.45mm
; top infill extrusion width = 0.40mm
; first layer extrusion width = 0.42mm

M73 P0 R57
M201 X1250 Y1250 Z400 E5000 ; sets maximum accelerations, mm/sec^2
M203 X180 Y180 Z12 E80 ; sets maximum feedrates, mm/sec
M204 P1250 R1250 T1250 ; sets acceleration (P, T) and retract acceleration (R), mm/sec^2
M205 X8.00 Y8.00 Z2.00 E10.00 ; sets the jerk limits, mm/sec
M205 S0 T0 ; sets the minimum extruding and travel feed rate, mm/sec
M107
;TYPE:Custom
G90 ; use absolute coordinates
M83 ; extruder relative mode
M104 S170 ; set extruder temp for bed leveling
M140 S85 ; set bed temp
M109 R170 ; wait for bed leveling temp
M190 S85 ; wait for bed temp
G28 ; home all without mesh bed level
G29 ; mesh bed leveling 
M104 S240 ; set extruder temp
G92 E0.0
G1 Y-2.0 X179 F2400
G1 Z3 F720
M109 S240 ; wait for extruder temp

; intro line
G1 X170 F1000
G1 Z0.2 F720
G1 X110.0 E8.0 F900
G1 X40.0 E10.0 F700
G92 E0.0

M221 S95 ; set flow
G21 ; set units to millimeters
G90 ; use absolute coordinates
M83 ; use relative distances for extrusion
M900 K0.2 ; Filament gcode
;LAYER_CHANGE
;Z:0.2
;HEIGHT:0.2
;BEFORE_LAYER_CHANGE
G92 E0.0
;0.2


M73 P0 R56
G1 Z0.200 F13200.000
;AFTER_LAYER_CHANGE
;0.2
; printing object ePaperCase-Front.stl id:0 copy 0
G1 E-3.20000 F2400.000
G1 Z0.400 F13200.000
G1 X5.513 Y138.187
G1 Z0.200
G1 E3.20000 F1500.000
M204 S800
;TYPE:Perimeter
;WIDTH:0.42
G1 F2400.000
G1 X174.287 Y138.187 E5.29180
G1 X174.287 Y35.013 E3.23495
G1 X5.610 Y35.013 E5.28874
G1 X5.558 Y34.859 E0.00509
G1 X5.710 Y34.743 E0.00598
G1 X5.948 Y34.614 E0.00849
G1 X6.202 Y34.527 E0.00840
G1 X6.616 Y34.476 E0.01310
G1 X173.445 Y34.479 E5.23079
G1 X173.787 Y34.523 E0.01081
G1 X174.052 Y34.614 E0.00878
G1 X174.287 Y34.742 E0.00839
G1 X174.586 Y34.992 E0.01222
G1 X174.766 Y35.222 E0.00917
G1 X174.934 Y35.573 E0.01221
G1 X175.000 Y35.833 E0.00840
G1 X175.024 Y36.128 E0.00929
G1 X175.024 Y143.884 E3.37860
M73 P1 R56
G1 X174.971 Y144.310 E0.01348
G1 X174.825 Y144.677 E0.01238
G1 X174.596 Y144.997 E0.01233
G1 X174.298 Y145.252 E0.01230
G1 X174.052 Y145.386 E0.00878
G1 X173.798 Y145.473 E0.00840
G1 X173.384 Y145.524 E0.01310
G1 X6.616 Y145.524 E5.22888
G1 X6.197 Y145.472 E0.01326
G1 X5.830 Y145.328 E0.01233
G1 X5.500 Y145.095 E0.01268
G1 X5.242 Y144.787 E0.01259
G1 X5.114 Y144.552 E0.00840
G1 X5.027 Y144.298 E0.00840
G1 X4.976 Y143.884 E0.01310
G1 X4.976 Y36.116 E3.37897
G1 X5.027 Y35.702 E0.01310
G1 X5.118 Y35.437 E0.00878
G1 X5.234 Y35.222 E0.00765
G1 X5.360 Y35.061 E0.00642
G1 X5.513 Y35.113 E0.00506
G1 X5.513 Y138.127 E3.22992
M204 S1250
G1 X5.890 Y137.810 F13200.000
M204 S800
;TYPE:External perimeter
G1 F2400.000
G1 X5.890 Y35.390 E3.21131
G1 X173.910 Y35.390 E5.26815
G1 X173.910 Y137.810 E3.21131
G1 X5.950 Y137.810 E5.26627
M204 S1250
G1 X5.497 Y137.883 F13200.000
G1 E-2.24000 F2400.000
;WIPE_START
G1 F10560.000
G1 X5.948 Y133.586 E-0.91200
;WIPE_END
G1 E-0.04800 F2400.000
G1 Z0.400 F13200.000
G1 X5.245 Y145.372
G1 Z0.200
G1 E3.20000 F1500.000
M204 S800
G1 F2400.000
G1 X5.131 Y145.258 E0.00505
G1 X4.925 Y144.994 E0.01050
G1 X4.768 Y144.704 E0.01036
G1 X4.661 Y144.391 E0.01036
G1 X4.606 Y144.061 E0.01050
G1 X4.599 Y143.892 E0.00532
G1 X4.599 Y36.108 E3.37946
G1 X4.606 Y35.939 E0.00532
G1 X4.661 Y35.609 E0.01050
G1 X4.769 Y35.292 E0.01050
G1 X4.840 Y35.148 E0.00505
G1 X4.923 Y35.009 E0.00505
G1 X5.129 Y34.744 E0.01056
G1 X5.294 Y34.586 E0.00713
G1 X5.505 Y34.426 E0.00832
G1 X5.796 Y34.268 E0.01039
G1 X6.109 Y34.161 E0.01036
G1 X6.439 Y34.106 E0.01050
G1 X6.608 Y34.099 E0.00532
G1 X173.462 Y34.102 E5.23158
G1 X173.887 Y34.159 E0.01344
G1 X174.204 Y34.268 E0.01050
G1 X174.494 Y34.425 E0.01036
G1 X174.758 Y34.631 E0.01050
G1 X174.869 Y34.742 E0.00491
G1 X175.078 Y35.009 E0.01063
G1 X175.158 Y35.144 E0.00491
G1 X175.292 Y35.450 E0.01050
G1 X175.373 Y35.771 E0.01036
G1 X175.401 Y36.113 E0.01076
G1 X175.401 Y143.892 E3.37933
M73 P2 R56
G1 X175.394 Y144.061 E0.00532
G1 X175.339 Y144.395 E0.01063
G1 X175.294 Y144.546 E0.00491
G1 X175.159 Y144.854 E0.01056
G1 X175.038 Y145.047 E0.00713
G1 X174.873 Y145.254 E0.00832
G1 X174.626 Y145.482 E0.01053
G1 X174.498 Y145.573 E0.00491
G1 X174.204 Y145.732 E0.01050
G1 X173.891 Y145.839 E0.01036
G1 X173.561 Y145.894 E0.01050
G1 X173.392 Y145.901 E0.00531
G1 X6.608 Y145.901 E5.22937
M73 P2 R55
G1 X6.439 Y145.894 E0.00532
G1 X6.107 Y145.839 E0.01056
G1 X5.891 Y145.769 E0.00713
G1 X5.649 Y145.660 E0.00832
G1 X5.290 Y145.411 E0.01368
M204 S1250
G1 X5.274 Y145.214 F13200.000
G1 E-2.24000 F2400.000
;WIPE_START
G1 F10560.000
G1 X5.131 Y145.258 E-0.04769
G1 X4.925 Y144.994 E-0.07228
G1 X4.768 Y144.704 E-0.07134
G1 X4.661 Y144.391 E-0.07134
G1 X4.606 Y144.061 E-0.07228
G1 X4.599 Y143.892 E-0.03660
G1 X4.599 Y141.388 E-0.54047
;WIPE_END
G1 E-0.04800 F2400.000
G1 Z0.400 F13200.000
G1 X5.244 Y138.376
G1 Z0.200
G1 E3.20000 F1500.000
M204 S800
;TYPE:Gap fill
;WIDTH:0.20316
G1 F2400.000
G1 X5.244 Y36.122 E1.36243
G1 X5.267 Y35.762 E0.00480
M204 S1250
M204 S800
;WIDTH:0.158047
G1 X5.285 Y35.653 E0.00106
M204 S1250
M204 S800
;WIDTH:0.125684
G1 X5.303 Y35.544 E0.00076
M204 S1250
G1 E-2.24000
;WIPE_START
G1 F10560.000
G1 X5.285 Y35.653 E-0.02395
;WIPE_END
G1 E-0.93605 F2400.000
G1 Z0.400 F13200.000
G1 X6.044 Y34.803
G1 Z0.200
G1 E3.20000 F1500.000
M204 S800
;WIDTH:0.128541
G1 F2400.000
G1 X6.262 Y34.767 E0.00158
G1 X6.622 Y34.744 E0.00256
G1 X173.432 Y34.746 E1.18759
G1 X173.720 Y34.764 E0.00206
G1 X173.956 Y34.803 E0.00170
M204 S1250
G1 X174.569 Y35.276 F13200.000
M204 S800
;WIDTH:0.356226
G1 F2400.000
G1 X174.607 Y35.584 E0.00808
M204 S1250
M204 S800
;WIDTH:0.382462
G1 X174.645 Y35.892 E0.00876
M204 S1250
M204 S800
;WIDTH:0.403146
G1 X174.656 Y138.376 E3.06968
M204 S1250
G1 X174.911 Y139.253 F13200.000
M204 S800
;TYPE:Solid infill
;WIDTH:0.421018
G1 F2400.000
G1 X174.128 Y138.470 E0.03483
G1 X173.593 Y138.470 E0.01681
G1 X174.742 Y139.618 E0.05106
G1 X174.742 Y140.153 E0.01681
G1 X173.059 Y138.470 E0.07483
G1 X172.524 Y138.470 E0.01681
G1 X174.742 Y140.688 E0.09860
G1 X174.742 Y141.222 E0.01681
G1 X171.989 Y138.470 E0.12238
G1 X171.454 Y138.470 E0.01681
G1 X174.742 Y141.757 E0.14615
G1 X174.742 Y142.292 E0.01681
G1 X170.920 Y138.470 E0.16993
G1 X170.385 Y138.470 E0.01681
G1 X174.742 Y142.826 E0.19370
G1 X174.742 Y143.361 E0.01681
G1 X169.850 Y138.470 E0.21747
G1 X169.316 Y138.470 E0.01681
G1 X174.738 Y143.893 E0.24110
G1 X174.695 Y144.239 E0.01098
G1 X174.653 Y144.342 E0.00349
G1 X168.781 Y138.470 E0.26110
G1 X168.246 Y138.470 E0.01681
G1 X174.467 Y144.691 E0.27659
G1 X174.386 Y144.804 E0.00439
G1 X174.203 Y144.961 E0.00757
G1 X167.711 Y138.470 E0.28862
G1 X167.177 Y138.470 E0.01681
G1 X173.859 Y145.153 E0.29712
G1 X173.734 Y145.196 E0.00417
G1 X173.408 Y145.236 E0.01032
G1 X166.642 Y138.470 E0.30084
G1 X166.107 Y138.470 E0.01681
G1 X172.879 Y145.242 E0.30108
G1 X172.344 Y145.242 E0.01681
G1 X165.573 Y138.470 E0.30108
G1 X165.038 Y138.470 E0.01681
G1 X171.810 Y145.242 E0.30108
G1 X171.275 Y145.242 E0.01681
G1 X164.503 Y138.470 E0.30108
G1 X163.968 Y138.470 E0.01681
G1 X170.740 Y145.242 E0.30108
G1 X170.205 Y145.242 E0.01681
G1 X163.434 Y138.470 E0.30108
G1 X162.899 Y138.470 E0.01681
G1 X169.671 Y145.242 E0.30108
G1 X169.136 Y145.242 E0.01681
G1 X162.364 Y138.470 E0.30108
G1 X161.830 Y138.470 E0.01681
G1 X168.601 Y145.242 E0.30108
G1 X168.067 Y145.242 E0.01681
G1 X161.295 Y138.470 E0.30108
G1 X160.760 Y138.470 E0.01681
G1 X167.532 Y145.242 E0.30108
G1 X166.997 Y145.242 E0.01681
G1 X160.226 Y138.470 E0.30108
G1 X159.691 Y138.470 E0.01681
G1 X166.463 Y145.242 E0.30108
G1 X165.928 Y145.242 E0.01681
G1 X159.156 Y138.470 E0.30108
G1 X158.621 Y138.470 E0.01681
G1 X165.393 Y145.242 E0.30108
G1 X164.858 Y145.242 E0.01681
G1 X158.087 Y138.470 E0.30108
G1 X157.552 Y138.470 E0.01681
G1 X164.324 Y145.242 E0.30108
G1 X163.789 Y145.242 E0.01681
G1 X157.017 Y138.470 E0.30108
G1 X156.483 Y138.470 E0.01681
G1 X163.254 Y145.242 E0.30108
G1 X162.720 Y145.242 E0.01681
G1 X155.948 Y138.470 E0.30108
G1 X155.413 Y138.470 E0.01681
G1 X162.185 Y145.242 E0.30108
G1 X161.650 Y145.242 E0.01681
G1 X154.878 Y138.470 E0.30108
G1 X154.344 Y138.470 E0.01681
G1 X161.115 Y145.242 E0.30108
G1 X160.581 Y145.242 E0.01681
G1 X153.809 Y138.470 E0.30108
G1 X153.274 Y138.470 E0.01681
G1 X160.046 Y145.242 E0.30108
G1 X159.511 Y145.242 E0.01681
G1 X152.740 Y138.470 E0.30108
G1 X152.205 Y138.470 E0.01681
G1 X158.977 Y145.242 E0.30108
G1 X158.442 Y145.242 E0.01681
G1 X151.670 Y138.470 E0.30108
G1 X151.135 Y138.470 E0.01681
G1 X157.907 Y145.242 E0.30108
G1 X157.372 Y145.242 E0.01681
G1 X150.601 Y138.470 E0.30108
G1 X150.066 Y138.470 E0.01681
G1 X156.838 Y145.242 E0.30108
G1 X156.303 Y145.242 E0.01681
G1 X149.531 Y138.470 E0.30108
G1 X148.997 Y138.470 E0.01681
G1 X155.768 Y145.242 E0.30108
G1 X155.234 Y145.242 E0.01681
G1 X148.462 Y138.470 E0.30108
G1 X147.927 Y138.470 E0.01681
G1 X154.699 Y145.242 E0.30108
G1 X154.164 Y145.242 E0.01681
G1 X147.392 Y138.470 E0.30108
G1 X146.858 Y138.470 E0.01681
G1 X153.629 Y145.242 E0.30108
G1 X153.095 Y145.242 E0.01681
G1 X146.323 Y138.470 E0.30108
G1 X145.788 Y138.470 E0.01681
G1 X152.560 Y145.242 E0.30108
G1 X152.025 Y145.242 E0.01681
G1 X145.254 Y138.470 E0.30108
G1 X144.719 Y138.470 E0.01681
G1 X151.491 Y145.242 E0.30108
G1 X150.956 Y145.242 E0.01681
G1 X144.184 Y138.470 E0.30108
G1 X143.649 Y138.470 E0.01681
G1 X150.421 Y145.242 E0.30108
G1 X149.886 Y145.242 E0.01681
G1 X143.115 Y138.470 E0.30108
G1 X142.580 Y138.470 E0.01681
G1 X149.352 Y145.242 E0.30108
G1 X148.817 Y145.242 E0.01681
G1 X142.045 Y138.470 E0.30108
G1 X141.511 Y138.470 E0.01681
G1 X148.282 Y145.242 E0.30108
G1 X147.748 Y145.242 E0.01681
G1 X140.976 Y138.470 E0.30108
G1 X140.441 Y138.470 E0.01681
G1 X147.213 Y145.242 E0.30108
G1 X146.678 Y145.242 E0.01681
G1 X139.906 Y138.470 E0.30108
G1 X139.372 Y138.470 E0.01681
G1 X146.143 Y145.242 E0.30108
G1 X145.609 Y145.242 E0.01681
G1 X138.837 Y138.470 E0.30108
G1 X138.302 Y138.470 E0.01681
G1 X145.074 Y145.242 E0.30108
M73 P3 R55
G1 X144.539 Y145.242 E0.01681
G1 X137.768 Y138.470 E0.30108
G1 X137.233 Y138.470 E0.01681
G1 X144.005 Y145.242 E0.30108
G1 X143.470 Y145.242 E0.01681
G1 X136.698 Y138.470 E0.30108
G1 X136.163 Y138.470 E0.01681
G1 X142.935 Y145.242 E0.30108
G1 X142.401 Y145.242 E0.01681
G1 X135.629 Y138.470 E0.30108
G1 X135.094 Y138.470 E0.01681
G1 X141.866 Y145.242 E0.30108
G1 X141.331 Y145.242 E0.01681
G1 X134.559 Y138.470 E0.30108
G1 X134.025 Y138.470 E0.01681
G1 X140.796 Y145.242 E0.30108
G1 X140.262 Y145.242 E0.01681
G1 X133.490 Y138.470 E0.30108
G1 X132.955 Y138.470 E0.01681
G1 X139.727 Y145.242 E0.30108
G1 X139.192 Y145.242 E0.01681
G1 X132.421 Y138.470 E0.30108
G1 X131.886 Y138.470 E0.01681
G1 X138.658 Y145.242 E0.30108
G1 X138.123 Y145.242 E0.01681
G1 X131.351 Y138.470 E0.30108
G1 X130.816 Y138.470 E0.01681
G1 X137.588 Y145.242 E0.30108
G1 X137.053 Y145.242 E0.01681
G1 X130.282 Y138.470 E0.30108
G1 X129.747 Y138.470 E0.01681
G1 X136.519 Y145.242 E0.30108
G1 X135.984 Y145.242 E0.01681
G1 X129.212 Y138.470 E0.30108
G1 X128.678 Y138.470 E0.01681
G1 X135.449 Y145.242 E0.30108
G1 X134.915 Y145.242 E0.01681
G1 X128.143 Y138.470 E0.30108
G1 X127.608 Y138.470 E0.01681
G1 X134.380 Y145.242 E0.30108
G1 X133.845 Y145.242 E0.01681
G1 X127.073 Y138.470 E0.30108
G1 X126.539 Y138.470 E0.01681
G1 X133.310 Y145.242 E0.30108
G1 X132.776 Y145.242 E0.01681
G1 X126.004 Y138.470 E0.30108
G1 X125.469 Y138.470 E0.01681
G1 X132.241 Y145.242 E0.30108
G1 X131.706 Y145.242 E0.01681
G1 X124.935 Y138.470 E0.30108
G1 X124.400 Y138.470 E0.01681
G1 X131.172 Y145.242 E0.30108
G1 X130.637 Y145.242 E0.01681
G1 X123.865 Y138.470 E0.30108
G1 X123.330 Y138.470 E0.01681
G1 X130.102 Y145.242 E0.30108
G1 X129.567 Y145.242 E0.01681
G1 X122.796 Y138.470 E0.30108
G1 X122.261 Y138.470 E0.01681
G1 X129.033 Y145.242 E0.30108
G1 X128.498 Y145.242 E0.01681
G1 X121.726 Y138.470 E0.30108
G1 X121.192 Y138.470 E0.01681
G1 X127.963 Y145.242 E0.30108
G1 X127.429 Y145.242 E0.01681
G1 X120.657 Y138.470 E0.30108
G1 X120.122 Y138.470 E0.01681
G1 X126.894 Y145.242 E0.30108
G1 X126.359 Y145.242 E0.01681
G1 X119.587 Y138.470 E0.30108
G1 X119.053 Y138.470 E0.01681
G1 X125.824 Y145.242 E0.30108
G1 X125.290 Y145.242 E0.01681
G1 X118.518 Y138.470 E0.30108
G1 X117.983 Y138.470 E0.01681
G1 X124.755 Y145.242 E0.30108
G1 X124.220 Y145.242 E0.01681
G1 X117.449 Y138.470 E0.30108
G1 X116.914 Y138.470 E0.01681
G1 X123.686 Y145.242 E0.30108
G1 X123.151 Y145.242 E0.01681
G1 X116.379 Y138.470 E0.30108
G1 X115.844 Y138.470 E0.01681
G1 X122.616 Y145.242 E0.30108
G1 X122.081 Y145.242 E0.01681
G1 X115.310 Y138.470 E0.30108
G1 X114.775 Y138.470 E0.01681
G1 X121.547 Y145.242 E0.30108
G1 X121.012 Y145.242 E0.01681
G1 X114.240 Y138.470 E0.30108
G1 X113.706 Y138.470 E0.01681
G1 X120.477 Y145.242 E0.30108
G1 X119.943 Y145.242 E0.01681
G1 X113.171 Y138.470 E0.30108
G1 X112.636 Y138.470 E0.01681
G1 X119.408 Y145.242 E0.30108
G1 X118.873 Y145.242 E0.01681
G1 X112.101 Y138.470 E0.30108
G1 X111.567 Y138.470 E0.01681
G1 X118.338 Y145.242 E0.30108
G1 X117.804 Y145.242 E0.01681
G1 X111.032 Y138.470 E0.30108
G1 X110.497 Y138.470 E0.01681
G1 X117.269 Y145.242 E0.30108
G1 X116.734 Y145.242 E0.01681
G1 X109.963 Y138.470 E0.30108
G1 X109.428 Y138.470 E0.01681
G1 X116.200 Y145.242 E0.30108
G1 X115.665 Y145.242 E0.01681
G1 X108.893 Y138.470 E0.30108
G1 X108.359 Y138.470 E0.01681
G1 X115.130 Y145.242 E0.30108
G1 X114.596 Y145.242 E0.01681
G1 X107.824 Y138.470 E0.30108
G1 X107.289 Y138.470 E0.01681
G1 X114.061 Y145.242 E0.30108
G1 X113.526 Y145.242 E0.01681
G1 X106.754 Y138.470 E0.30108
G1 X106.220 Y138.470 E0.01681
G1 X112.991 Y145.242 E0.30108
G1 X112.457 Y145.242 E0.01681
G1 X105.685 Y138.470 E0.30108
G1 X105.150 Y138.470 E0.01681
G1 X111.922 Y145.242 E0.30108
G1 X111.387 Y145.242 E0.01681
G1 X104.616 Y138.470 E0.30108
G1 X104.081 Y138.470 E0.01681
G1 X110.853 Y145.242 E0.30108
G1 X110.318 Y145.242 E0.01681
G1 X103.546 Y138.470 E0.30108
G1 X103.011 Y138.470 E0.01681
G1 X109.783 Y145.242 E0.30108
G1 X109.248 Y145.242 E0.01681
G1 X102.477 Y138.470 E0.30108
G1 X101.942 Y138.470 E0.01681
G1 X108.714 Y145.242 E0.30108
G1 X108.179 Y145.242 E0.01681
G1 X101.407 Y138.470 E0.30108
G1 X100.873 Y138.470 E0.01681
G1 X107.644 Y145.242 E0.30108
G1 X107.110 Y145.242 E0.01681
G1 X100.338 Y138.470 E0.30108
G1 X99.803 Y138.470 E0.01681
G1 X106.575 Y145.242 E0.30108
G1 X106.040 Y145.242 E0.01681
G1 X99.268 Y138.470 E0.30108
G1 X98.734 Y138.470 E0.01681
G1 X105.505 Y145.242 E0.30108
G1 X104.971 Y145.242 E0.01681
G1 X98.199 Y138.470 E0.30108
G1 X97.664 Y138.470 E0.01681
G1 X104.436 Y145.242 E0.30108
G1 X103.901 Y145.242 E0.01681
G1 X97.130 Y138.470 E0.30108
G1 X96.595 Y138.470 E0.01681
G1 X103.367 Y145.242 E0.30108
G1 X102.832 Y145.242 E0.01681
G1 X96.060 Y138.470 E0.30108
G1 X95.525 Y138.470 E0.01681
G1 X102.297 Y145.242 E0.30108
G1 X101.762 Y145.242 E0.01681
G1 X94.991 Y138.470 E0.30108
G1 X94.456 Y138.470 E0.01681
G1 X101.228 Y145.242 E0.30108
G1 X100.693 Y145.242 E0.01681
G1 X93.921 Y138.470 E0.30108
G1 X93.387 Y138.470 E0.01681
G1 X100.158 Y145.242 E0.30108
G1 X99.624 Y145.242 E0.01681
G1 X92.852 Y138.470 E0.30108
G1 X92.317 Y138.470 E0.01681
G1 X99.089 Y145.242 E0.30108
G1 X98.554 Y145.242 E0.01681
G1 X91.782 Y138.470 E0.30108
G1 X91.248 Y138.470 E0.01681
G1 X98.019 Y145.242 E0.30108
G1 X97.485 Y145.242 E0.01681
G1 X90.713 Y138.470 E0.30108
G1 X90.178 Y138.470 E0.01681
G1 X96.950 Y145.242 E0.30108
G1 X96.415 Y145.242 E0.01681
G1 X89.644 Y138.470 E0.30108
G1 X89.109 Y138.470 E0.01681
G1 X95.881 Y145.242 E0.30108
G1 X95.346 Y145.242 E0.01681
G1 X88.574 Y138.470 E0.30108
G1 X88.039 Y138.470 E0.01681
G1 X94.811 Y145.242 E0.30108
G1 X94.276 Y145.242 E0.01681
G1 X87.505 Y138.470 E0.30108
G1 X86.970 Y138.470 E0.01681
G1 X93.742 Y145.242 E0.30108
M73 P3 R54
G1 X93.207 Y145.242 E0.01681
G1 X86.435 Y138.470 E0.30108
G1 X85.901 Y138.470 E0.01681
G1 X92.672 Y145.242 E0.30108
